icons/plus/plus-square.svg

<svg width="14" height="14" viewBox="0 0 14 14" fill="none"
    xmlns="http://www.w3.org/2000/svg">
    <path d="M10 3H4C3.44772 3 3 3.44772 3 4V10C3 10.5523 3.44772 11 4 11H10C10.5523 11 11 10.5523 11 10V4C11 3.44772 10.5523 3 10 3Z" stroke="green" stroke-linejoin="round"/>
    <path d="M5 7.04711H9M6.99672 5V9" stroke="red" stroke-linecap="round"/>
</svg>

<svg xmlns="http://www.w3.org/2000/svg" width="14" height="14" fill="none" viewBox="0 0 14 14"><path stroke="green" stroke-linejoin="round" d="M10 3H4a1 1 0 0 0-1 1v6a1 1 0 0 0 1 1h6a1 1 0 0 0 1-1V4a1 1 0 0 0-1-1Z"/><path stroke="red" stroke-linecap="round" d="M5 7.047h4M6.997 5v4"/></svg>
